X: 07054
T: HILARY'S JIG #1
C: Bob McQuillen 11 Jan 89
B: Bob's Note Book 7 #54
%R: jig
Z: 2020 John Chambers <jc:trillian.mit.edu>
M: 6/8
L: 1/8
K: D
FE \
| DFB AFD | GAB A2f | gfg ecA | dfd AFE |\
| DFB AFD | GAB Adf | gfg eag | fdd d  :|
|: ag \
| fdB Afa | ged cBA | fga geg | fdf ede |\
| fed edc | dBd AFD | BAB cBc | dDD D  :|
%%begintext align
%% This one's for
%% Hilary Miskoe, who's always so
%% nice to me when I think I'm talking
%% to her mom (Sylvia) on the 'phone!
%%endtext

%%sep 1 1 500

%%sep 1 1 500

